modules/entypo/icons/newspaper.svg

<svg height="1000px" width="800px" xmlns="http://www.w3.org/2000/svg">
  <g>
    <path d="M700 50c28 0 51.667 9.667 71 29c19.333 19.333 29 43 29 71c0 0 0 700 0 700c0 26.667 -9.667 50 -29 70c-19.333 20 -43 30 -71 30c0 0 -600 0 -600 0c-26.667 0 -50 -10 -70 -30c-20 -20 -30 -43.333 -30 -70c0 0 0 -700 0 -700c0 -28 10 -51.667 30 -71c20 -19.333 43.333 -29 70 -29c0 0 600 0 600 0c0 0 0 0 0 0m0 800c0 0 0 -700 0 -700c0 0 -600 0 -600 0c0 0 0 700 0 700c0 0 600 0 600 0c0 0 0 0 0 0m-250 -250c0 0 0 50 0 50c0 0 -250 0 -250 0c0 0 0 -50 0 -50c0 0 250 0 250 0c0 0 0 0 0 0m150 -200c0 0 0 50 0 50c0 0 -200 0 -200 0c0 0 0 -50 0 -50c0 0 200 0 200 0c0 0 0 0 0 0m-200 -50c0 0 0 -100 0 -100c0 0 200 0 200 0c0 0 0 100 0 100c0 0 -200 0 -200 0c0 0 0 0 0 0m-50 -100c0 0 0 200 0 200c0 0 -150 0 -150 0c0 0 0 -200 0 -200c0 0 150 0 150 0c0 0 0 0 0 0m-50 250c0 0 0 50 0 50c0 0 -100 0 -100 0c0 0 0 -50 0 -50c0 0 100 0 100 0c0 0 0 0 0 0m50 50c0 0 0 -50 0 -50c0 0 250 0 250 0c0 0 0 50 0 50c0 0 -250 0 -250 0c0 0 0 0 0 0m250 150c0 0 0 50 0 50c0 0 -400 0 -400 0c0 0 0 -50 0 -50c0 0 400 0 400 0c0 0 0 0 0 0m-100 -50c0 0 0 -50 0 -50c0 0 100 0 100 0c0 0 0 50 0 50c0 0 -100 0 -100 0c0 0 0 0 0 0" />
  </g>
</svg>

<svg height="1000" width="800" xmlns="http://www.w3.org/2000/svg"><path d="M700 50c28 0 51.667 9.667 71 29s29 43 29 71v700c0 26.667-9.667 50-29 70s-43 30-71 30H100c-26.667 0-50-10-70-30S0 876.667 0 850V150c0-28 10-51.667 30-71s43.333-29 70-29h600m0 800V150H100v700h600M450 600v50H200v-50h250m150-200v50H400v-50h200m-200-50V250h200v100H400m-50-100v200H200V250h150m-50 250v50H200v-50h100m50 50v-50h250v50H350m250 150v50H200v-50h400m-100-50v-50h100v50H500"/></svg>
